X:1
T:Sherlock Main Theme
T:arr. Mel Chavis
%%score 1 2 3
L:1/8
M:4/4
K:F
V:1 treble+8 nm="Blockflöte" snm="Bfl."
V:2 treble+8 nm="Blockflöte" snm="Bfl."
V:3 treble+8 nm="Blockflöte" snm="Bfl."
V:1
 DA z uA G/A/B- BA | G d7 | Gd z ud ^c/d/e- ed | f8 | ad z d ef ed | gd z4 z vd/e/ | %6
 ff/g/ ee/f/ dd/e/ ^cB/A/ | d8 | ad z ud ef ed | gd z4 z vd/e/ | ff/g/ ee/f/ dd/e/ ^cB/A/ | d8 || %12
[K:A] z8 | z2 B.d z4 | z8 | z8!mf! |!f! z2 z uA Bc BA | dA z4 z vA/B/ | cc/d/ BB/c/ AA/B/ GF/E/ | %19
!<(! A8!<)! |!ff! cuF z uF GA GF | BF z4 z vF/G/ | AA/B/ GG/A/ FF/G/ ^ED/C/ |!<(! F8!<)! |] %24
V:2
 duf z uf df Af | gub z ub gb db | gb z b gb db | df z f df Af | df z f df Af | gb z b gb db | %6
 gb z b gb db | df z f df Af | duf z uf df Af | gub z ub gb db | gb z b gb db | d8 || %12
[K:A] Fuc z uc ^B/c/d- dc | B f7 | Buf z uf ^e/f/g- gf |!<(! a8!<)! | c'uf z uf ga gf | %17
 bf z4 z vf/g/ | aa/b/ gg/a/ ff/g/ ^ed/c/ |!<(! f8!<)! |!ff! c'uf z uf ga gf | bf z4 z vf/g/ | %22
 aa/b/ gg/a/ ff/g/ ^ed/c/ |!<(! f8!<)! |] %24
V:3
 A/A/d B/B/d A/A/d B/B/d | G/G/d B/B/d G/G/d B/B/d | G/G/d B/B/d G/G/d B/B/d | %3
 F/F/A D/D/A F/F/A D/D/A | A/A/d B/B/d A/A/d B/B/d | G/G/d B/B/d G/G/d B/B/d | %6
 G/G/d B/B/d G/G/d B/B/d | F/F/A D/D/A F/F/A D/D/A | A/A/d B/B/d A/A/d B/B/d | %9
 G/G/d B/B/d G/G/d B/B/d | G/G/d B/B/d G/G/d B/B/d | d8 ||[K:A]!f! FA cA FA cA | B^d fd Bd fd | %14
 Bd fd Bd fd | A=c ec Ac ec | FA cA FA cA | B^d fd Bd fd | Bd fd Bd fd | %19
!<(! F/F/F G/G/G A/A/A =c/c/c!<)! |!ff! FA cA FA cA | B^d fd Bd fd | Bd fd Bd fd | f8 |] %24

